X: 968
T: Harmandalı
C: ?
O: Turkey
F: http://compmusic.upf.edu/node/140
N: hicaz--zeybek--agiraksak--harmandali--ege
N: makam= hicaz
N: form= zeybek
N: usul= agiraksak = 9/4
M: 9/4
L: 1/16
K: C _7/8B ^f ^c 
Q: 1/4=57
%%MIDI tuningsystem comma53
d2ef g2(3fef g2(3fef g2a2 e4 ee3 A8 A2z2  | \
w:   | 
d2ef g2(3fef g2(3fef g2a2 e4 ee3 a8 a2z2  | 
w:   | 
gg3 g=fed f3f edcB A4 A2G2 A3/2G/AB c2d2 e2^f2  | 
w:   | 
{d}g3g g=fed f3f edcB A4 A2G2 ABcd ecdB A2z2  | 
w:   | 
{d}g3g g=fed f3f edcB A4 A2G2 ABcd ecdB A2z2  | 
w:   | 
d3d dc(3BAB {c}d3d dcBA B6A2 A3/2G/AB c2d2 e2f2  | 
w:   | 
{f}g4 g=fed ef3 edcB A4 A2G2 ABcd ecdB A2z2  | 
w:   | 
d3d dc(3BAB {c}d3d dcBA B6A2 A3/2G/AB c2d2 e2f2  | 
w:   | 
{f}g4 g=fed ef3 edcB A4 A2G2 ABcd ecdB A2z2  | 
w:   | 
d2ef g2(3fef g2(3fef g2a2 e4 ee3 A8 A2z2  | \
w:   | 
d2ef g2(3fef g2(3fef g2a2 e4 ee3 a8 a2z2  | 
w:   | 
gg3 g=fed f3f edcB A4 A2G2 A3/2G/AB c2d2 e2^f2  | 
w:   | 
{d}g3g g=fed f3f edcB A4 A2G2 ABcd ecdB A2z2  | 
w:   | 
{d}g3g g=fed f3f edcB A4 A2G2 ABcd ecdB A2z2  | 
w:   | 
d3d dc(3BAB {c}d3d dcBA B6A2 A3/2G/AB c2d2 e2f2  | 
w:   | 
{f}g4 g=fed ef3 edcB A4 A2G2 ABcd ecdB A2z2  | 
w:   | 
d3d dc(3BAB {c}d3d dcBA B6A2 A3/2G/AB c2d2 e2f2  | 
w:   | 
{f}g4 g=fed ef3 edcB A4 A2G2 ABcd ecdB A2z2  | 
w:   | 
|


